X: 36269
T: Seamus
R: jig
M: 6/8
K: Gmajor
E2B B2A|G2F DEF|E2B B2A|GEG A3|
E2B B2A|G2F G2E|AGE E2D|E3 E2B:|
E2B EGA|BcB AGE|D2A AGE|DEG A3|
E2B EGA|BcB A2d|dBG AGE|EDE E3:|

